X:3021
T:Cooley's Reel
R:Reel
C:Trad.
O:Ireland
Z:Paul Hardy's Session Tunebook 2015 (see www.paulhardy.net). Creative Commons cc by-nc-sa licenced.
M:4/4
L:1/8
Q:1/4=140
K:EDor
D2|"Em"EBBA B2EB|B2AB dBAG|"D" (3FEDAD BDAG|(3FEDFA dAFD|
"Em"EBBA B2EB|B2AB defg|"D"afec dBAF|DEFD "Em"E2:|
gf|"Em"eBB2 efgf|eB B2 gedB|"Bm"A2FA DAFA|A2FA defg|
"Em"eB B2 efgf|eB B2 defg|"D"afec dBAF|DEFD "Em"E2:|

